#TITLE "TEST for LambdaMusic"

@0 {
  4,5,
  31, 5, 0, 0, 0,23, 1, 1, 3, 0
  20,10, 3, 7, 8, 0, 1, 1, 3, 0
  31, 3, 0, 0, 0,25, 1, 1, 7, 0
  31,12, 3, 7,10, 2, 1, 1, 7, 0
}

A @0 t120 o4 v10 c
B @0 o4 v10 e

H @0 o5 v15 c1  r1
I @0 o5 v15 re1 r1
J @0 o5 v15 rrg1 r1

D v15 l8 cdefgab>c v10 < cdefgab>c